X:1009
T:The Lee Rig (bass)
S:J. Brysson, A Curious Selection of Tunes with Variations
C:play 7 times
B:NLS Glen.233(2)
M:2/4
L:1/8
Q:1/4=60
K:D bass middle=d
z|zdfg |fefd |cdef|zgGz|zdfg|fefd|gfea|d'ad:|
z|gG fd|eE dB|cdef|zgGz|zdfg|fefd|gfea|d'ad:|

